X: 11s
%%titlespace -20
%%composerspace -12
T: Lord of the Rings
C: Howard Shore
M: 6/8
L: 1/8
K: Gmaj
G2A| "G"B3 d3 | B2A G2A | G3-G2A | G3 B2d | "C"e3 g3 | "D"f3 d3 | "Em"B3-BcB | "D"A3 G2 A|
"G"B3 d3 | B2A G2A | G3-G2A | G3 B2d | "C"e6 | "G"d3 B3 | "D"A6 | A6 | 
"Em"E3-EEE | "D"D3-DDD | "Em"E6 | -E3-EAB | "Am"c3-cBA | "G/B"G3-GAB | "C"A6 | "D"G3 F3 | 
"Em"E3-EEE | "D"D3-DDD | "Em"E6 | -E3-EAB | "Am"c3-cBc |"Bm"d3-dcd | "Em"e6 | "Em"e6|] 

%%newpage

